X: 159
T: Considera Israel
N: Derived from Rue2002-Considera_Israel.krn
C: Pierre de la Rue
%%abc-version 2.0
%%abcx-abcm2ps-target-version 5.9.1 (29 Sep 2008)
%%abc-creator hum2abc beta
%%abcx-conversion-date 2019/02/17 08:01:16
%%abc-edited-by Jesse Rodin
%%abc-edited-by Chris Gage 12-06-2012
%%abcx-initial-encoding-date 2013/07/18/
%%humdrum-veritas 2047326299
%%humdrum-veritas-data 994505312
%%linebreak <none>
%%barnumbers 0
L: 1/4
M: 2/1
Q: 1/2=120
%%staves [1 2 3 4]
V: 1 clef=treble
V: 2 clef=treble-8
V: 3 clef=treble-8
V: 4 clef=bass
K: C
[V:1] z8 | 
[V:2] z8 | 
[V:3] A8- | 
[V:4] z4A,,4- | 
[V:1] z8 | 
[V:2] z8 | 
[V:3] A8 | 
[V:4] A,,2B,,C,D,4 | 
[V:1] z4E4- | 
[V:2] z4c4- | 
[V:3] A4A4 | 
[V:4] C,6A,,2 | 
[V:1] E2FGA4 | 
[V:2] c2def4 | 
[V:3] A8 | 
[V:4] A,,8 | 
[V:1] G6AB | 
[V:2] e6fg | 
[V:3] z4c4- | 
[V:4] z8 | 
[V:1] c4c4 | 
[V:2] a4a4 | 
[V:3] c2def2e2- | 
[V:4] A,,8 | 
[V:1] c6BA | 
[V:2] agfef4 | 
[V:3] e2d3cc2 | 
[V:4] A,,8 | 
[V:1] B6E2 | 
[V:2] g8 | 
[V:3] d8 | 
[V:4] G,,8 | 
[V:1] E4A4- | 
[V:2] c3defe2- | 
[V:3] z4c4- | 
[V:4] A,,4A,,3B,, | 
[V:1] A2GFG4 | 
[V:2] e2d4B2 | 
[V:3] c2B2G4 | 
[V:4] C,2D,2B,,4 | 
[V:1] C4c4- | 
[V:2] c2A2e4 | 
[V:3] A4A3B | 
[V:4] A,,8 | 
[V:1] c2BAB4 | 
[V:2] f4d4 | 
[V:3] c2d2B4 | 
[V:4] F,,4G,,4 | 
[V:1] E4A4- | 
[V:2] c4c3d | 
[V:3] A8 | 
[V:4] A,,4A,,3B,, | 
[V:1] A2GFG3C | 
[V:2] e2f2d2e2 | 
[V:3] A4B4 | 
[V:4] C,2D,2G,,4 | 
[V:1] !fermata!C8 | 
[V:2] !fermata!E8 | 
[V:3] !fermata!A8 | 
[V:4] !fermata!A,,8 | 
[V:1] z8 | 
[V:2] z8 | 
[V:3] z8 | 
[V:4] B,,4D,4 | 
[V:1] z8 | 
[V:2] z8 | 
[V:3] E4A4 | 
[V:4] C,4F,4 | 
[V:1] z8 | 
[V:2] z8 | 
[V:3] G4c4 | 
[V:4] E,4z2A,2- | 
[V:1] z8 | 
[V:2] z8 | 
[V:3] B4e4 | 
[V:4] A,2G,3F,E,D, | 
[V:1] z8 | 
[V:2] z8 | 
[V:3] e2d3cBA | 
[V:4] C,2B,,A,,G,,2D,2 | 
[V:1] C4F4 | 
[V:2] z8 | 
[V:3] G2c4B2 | 
[V:4] E,2C,2D,4 | 
[V:1] E4A4 | 
[V:2] z8 | 
[V:3] c8- | 
[V:4] C,8- | 
[V:1] G4c4- | 
[V:2] e4e2e2 | 
[V:3] c8 | 
[V:4] C,8 | 
[V:1] c2B3AGF | 
[V:2] f2d2e3d | 
[V:3] z8 | 
[V:4] z8 | 
[V:1] E3DE2F2 | 
[V:2] cBA3GA2- | 
[V:3] z8 | 
[V:4] z8 | 
[V:1] E3FGFED | 
[V:2] AGc3AB2 | 
[V:3] z8 | 
[V:4] z8 | 
[V:1] C4z2E2 | 
[V:2] E4z2G2 | 
[V:3] c8 | 
[V:4] C,8 | 
[V:1] E4E4 | 
[V:2] G4G4 | 
[V:3] c4c4- | 
[V:4] C,4C,4 | 
[V:1] D4D4 | 
[V:2] G4G4 | 
[V:3] c2BAB4 | 
[V:4] G,,4G,,4 | 
[V:1] C4z2G2 | 
[V:2] E4z2e2 | 
[V:3] c8 | 
[V:4] C,8 | 
[V:1] G4G4 | 
[V:2] e4e4 | 
[V:3] z2c2c2c2 | 
[V:4] z2E,2E,2E,2 | 
[V:1] F4F4 | 
[V:2] fedcd4 | 
[V:3] dcBAB4 | 
[V:4] D,4D,4 | 
[V:1] E4z2c2 | 
[V:2] e4z2e2 | 
[V:3] c8 | 
[V:4] A,,8 | 
[V:1] c4c4 | 
[V:2] e4f4 | 
[V:3] z2c2c2c2 | 
[V:4] z2A,2A,2A,2 | 
[V:1] B6AG | 
[V:2] g4gfed | 
[V:3] dcBAB4 | 
[V:4] G,8 | 
[V:1] G4z4 | 
[V:2] e4c4 | 
[V:3] c4z2A2- | 
[V:4] C,8 | 
[V:1] z4z2A2- | 
[V:2] z2f4f2 | 
[V:3] A2A2A2A2 | 
[V:4] z2D,4D,2 | 
[V:1] A2A2A2A2 | 
[V:2] f2f2f2f2 | 
[V:3] d4d4 | 
[V:4] D,2D,2D,2D,2 | 
[V:1] d4d4 | 
[V:2] g4g4 | 
[V:3] B4B4 | 
[V:4] G,,4G,,4 | 
[V:1] c4c4 | 
[V:2] c4e4 | 
[V:3] A8 | 
[V:4] A,,4C,4 | 
[V:1] A4z4 | 
[V:2] f4f4- | 
[V:3] z2d4c2 | 
[V:4] D,4B,,2A,,2 | 
[V:1] z2d4c2 | 
[V:2] f4f4 | 
[V:3] A8 | 
[V:4] D,4D,4 | 
[V:1] A2d4cB | 
[V:2] f4f4 | 
[V:3] d3cB2A2 | 
[V:4] D,4D,4- | 
[V:1] A2B4c2- | 
[V:2] f4e2c2- | 
[V:3] d3cB2G2 | 
[V:4] D,4E,4 | 
[V:1] cBA4^G2 | 
[V:2] c2d2e4 | 
[V:3] A4B4 | 
[V:4] F,4E,4 | 
[V:1] A4z2A2 | 
[V:2] c4z2c2 | 
[V:3] A8 | 
[V:4] A,,4z2A,,2 | 
[V:1] c4c4 | 
[V:2] e4f4 | 
[V:3] z4A4 | 
[V:4] A,,4A,,4 | 
[V:1] B4B4 | 
[V:2] g4g4 | 
[V:3] d4d4 | 
[V:4] G,,4G,,4 | 
[V:1] d8 | 
[V:2] g6fe | 
[V:3] d2d2B4 | 
[V:4] G,,8 | 
[V:1] c4z2c2 | 
[V:2] e4e4 | 
[V:3] A2c3BA2 | 
[V:4] A,,4A,,4 | 
[V:1] B2G2A2B2- | 
[V:2] g4e2f2 | 
[V:3] G2c4B2 | 
[V:4] E,4C,2D,2 | 
[V:1] B2A2A3^G | 
[V:2] e2d2e4 | 
[V:3] G2A2B4 | 
[V:4] E,2F,2E,4 | 
[V:1] A8- | 
[V:2] e8 | 
[V:3] A8 | 
[V:4] A,,8- | 
[V:1] A8 | 
[V:2] z4e4 | 
[V:3] z4E4 | 
[V:4] A,,8 | 
[V:1] z8 | 
[V:2] e2d4c2- | 
[V:3] E2F4E2- | 
[V:4] z8 | 
[V:1] z8 | 
[V:2] c2BAB4 | 
[V:3] E2DCD4 | 
[V:4] z8 | 
[V:1] z8 | 
[V:2] c8 | 
[V:3] C4G4- | 
[V:4] C,6C,2 | 
[V:1] z8 | 
[V:2] z8 | 
[V:3] G2G2G4 | 
[V:4] C,4B,,4 | 
[V:1] z4E4 | 
[V:2] z8 | 
[V:3] A4c4 | 
[V:4] A,,2C,4E,2- | 
[V:1] E2F4E2- | 
[V:2] z8 | 
[V:3] c2d4c2- | 
[V:4] E,2D,3C,A,,2- | 
[V:1] E2DCD4 | 
[V:2] z8 | 
[V:3] cBA4^G2 | 
[V:4] A,,2C,2B,,4 | 
[V:1] C4G4- | 
[V:2] e6e2 | 
[V:3] A4z4 | 
[V:4] A,,4z4 | 
[V:1] G2G2G4 | 
[V:2] c4B4 | 
[V:3] z8 | 
[V:4] z8 | 
[V:1] A4B2cB | 
[V:2] A2d4c2- | 
[V:3] z8 | 
[V:4] z8 | 
[V:1] AGA4^G2 | 
[V:2] c2BAB4 | 
[V:3] z8 | 
[V:4] z8 | 
[V:1] A8 | 
[V:2] A8- | 
[V:3] E8 | 
[V:4] A,,8 | 
[V:1] c4c4 | 
[V:2] A8 | 
[V:3] E8 | 
[V:4] A,,8 | 
[V:1] B2B2A4 | 
[V:2] z8 | 
[V:3] G4A4 | 
[V:4] E,4F,4 | 
[V:1] G8 | 
[V:2] e4e4 | 
[V:3] B4z2c2 | 
[V:4] E,4z2C,2 | 
[V:1] z2G2A4 | 
[V:2] z2e2f2e2- | 
[V:3] B4z2c2- | 
[V:4] E,4z2A,,2 | 
[V:1] z2G2A3B | 
[V:2] e2e2f2c2 | 
[V:3] c2B2A4- | 
[V:4] E,4z4 | 
[V:1] c2d3cBA | 
[V:2] f4f4 | 
[V:3] A2Bcd4 | 
[V:4] z2D,2D,2D,2 | 
[V:1] G8 | 
[V:2] e8- | 
[V:3] B4z2c2 | 
[V:4] E,4z2C,2 | 
[V:1] z2G2A4 | 
[V:2] e8- | 
[V:3] B4A4 | 
[V:4] E,4A,,4 | 
[V:1] G4z2G2 | 
[V:2] e8 | 
[V:3] c4B4 | 
[V:4] z2C,2E,4 | 
[V:1] A3Bc2d2- | 
[V:2] z8 | 
[V:3] A4e2d2 | 
[V:4] A,,2D,2C,2B,,2 | 
[V:1] d2c3BB2 | 
[V:2] z8 | 
[V:3] e3fd4 | 
[V:4] C,4G,,4 | 
[V:1] c8 | 
[V:2] z2g2g4 | 
[V:3] c8 | 
[V:4] C,8 | 
[V:1] z8 | 
[V:2] f2e4d2- | 
[V:3] z8 | 
[V:4] z2G,2G,4 | 
[V:1] z8 | 
[V:2] d2c2B2d2- | 
[V:3] z8 | 
[V:4] F,2E,4D,2- | 
[V:1] z8 | 
[V:2] dcA4c2- | 
[V:3] z8 | 
[V:4] D,2F,3E,C,2 | 
[V:1] z8 | 
[V:2] cBG2E2G2 | 
[V:3] z8 | 
[V:4] A,,2E,3D,B,,2 | 
[V:1] z4G4 | 
[V:2] A2c4B2 | 
[V:3] z8 | 
[V:4] A,,4E,4 | 
[V:1] G2G2G4 | 
[V:2] E2e4e2 | 
[V:3] c4B2B2 | 
[V:4] E,4E,4 | 
[V:1] A4c4 | 
[V:2] c4c2f2- | 
[V:3] A4F4 | 
[V:4] F,4A,4 | 
[V:1] B4A2A2- | 
[V:2] f2e3dd2 | 
[V:3] G4A4 | 
[V:4] G,4F,4 | 
[V:1] AGE4c2- | 
[V:2] e4e4 | 
[V:3] B4c2c2 | 
[V:4] E,4A,,2A,,2 | 
[V:1] c2BAB2A2- | 
[V:2] e3fg2d2- | 
[V:3] c4d3c | 
[V:4] A,,4G,,2D,2 | 
[V:1] A2G4^F2 | 
[V:2] d2c2d4 | 
[V:3] B2G2A4 | 
[V:4] E,4D,4 | 
[V:1] G8- | 
[V:2] B4z2G2- | 
[V:3] G4z2E2- | 
[V:4] E,4E,2C,2- | 
[V:1] G8- | 
[V:2] GABcd2B2- | 
[V:3] EFGAB2G2- | 
[V:4] C,2B,,A,,G,,4 | 
[V:1] G8 | 
[V:2] Bcded4 | 
[V:3] GABcd2B2 | 
[V:4] G,,2G,,2G,,4 | 
[V:1] z4z2E2- | 
[V:2] G4z2c2- | 
[V:3] c2BAG4- | 
[V:4] C,8 | 
[V:1] EFGAB2G2- | 
[V:2] cdefg2e2- | 
[V:3] G4G4 | 
[V:4] z8 | 
[V:1] GABcd2B2 | 
[V:2] efg3fd2 | 
[V:3] B4B4 | 
[V:4] G,,8 | 
[V:1] c2BAG4- | 
[V:2] c8 | 
[V:3] A4E4 | 
[V:4] A,,4C,4- | 
[V:1] G4G4 | 
[V:2] e4d4 | 
[V:3] z8 | 
[V:4] C,4B,,4 | 
[V:1] A4c4- | 
[V:2] c4c4 | 
[V:3] z4E4 | 
[V:4] A,,8- | 
[V:1] c4B4 | 
[V:2] A4B4 | 
[V:3] F4G4 | 
[V:4] A,,4G,,4 | 
[V:1] A3GFEF2- | 
[V:2] c4c4- | 
[V:3] A8 | 
[V:4] F,,4A,,4 | 
[V:1] F2E4D2 | 
[V:2] c4A4 | 
[V:3] G4F4 | 
[V:4] C,4D,4 | 
[V:1] E8 | 
[V:2] A4z2A2 | 
[V:3] E8 | 
[V:4] A,,8 | 
[V:1] z4z2E2 | 
[V:2] c2c2c4 | 
[V:3] z8 | 
[V:4] z2A,,2C,2C,2 | 
[V:1] G2G2G4 | 
[V:2] e4e4 | 
[V:3] z2E2G2G2 | 
[V:4] C,4C,4 | 
[V:1] E3FGAB2 | 
[V:2] c3defd2 | 
[V:3] G4z2d2 | 
[V:4] C,4C,2B,,2 | 
[V:1] c2B4G2 | 
[V:2] c2g3fd2 | 
[V:3] e4d4 | 
[V:4] A,,2G,,4G,,2 | 
[V:1] A2G4C2 | 
[V:2] e8- | 
[V:3] c2G2ABcd | 
[V:4] C,8 | 
[V:1] DCB,A,B,4 | 
[V:2] e8 | 
[V:3] B2A4GA | 
[V:4] G,,2A,,2E,4 | 
[V:1] z2G,2A,B,CD | 
[V:2] z2e4c2 | 
[V:3] BcB2A4 | 
[V:4] E,4A,,3B,, | 
[V:1] B,2A,4G2 | 
[V:2] d2cdefd2 | 
[V:3] z4z2D2 | 
[V:4] G,,2A,,B,,C,D,B,,2 | 
[V:1] ABcdc2BA | 
[V:2] e8 | 
[V:3] CDEFE2G2 | 
[V:4] A,,6E,2 | 
[V:1] GFA4^G2 | 
[V:2] z8 | 
[V:3] ABcdB4 | 
[V:4] F,3D,E,4 | 
[V:1] A8- | 
[V:2] z4c4- | 
[V:3] A8- | 
[V:4] A,,8- | 
[V:1] A8- | 
[V:2] c2E2F4 | 
[V:3] A8- | 
[V:4] A,,8- | 
[V:1] A8 ||  
[V:2] E8 ||  
[V:3] A8 ||  
[V:4] A,,8 ||  
[V:1]  [K:C] [K:clef=treble][M:2/1]z8 | 
[V:2]  [K:C] [K:clef=treble-8][M:2/1]z8 | 
[V:3]  [K:C] [K:clef=treble-8][M:2/1]E4E4 | 
[V:4]  [K:C] [K:clef=bass][M:2/1]z4A,,4 | 
[V:1] z8 | 
[V:2] z8 | 
[V:3] F2E4D2 | 
[V:4] A,,6B,,2 | 
[V:1] z8 | 
[V:2] z8 | 
[V:3] F2E4D2 | 
[V:4] A,,4G,,2F,,2 | 
[V:1] z8 | 
[V:2] z8 | 
[V:3] C2E4D2- | 
[V:4] A,,4G,,4 | 
[V:1] z8 | 
[V:2] z8 | 
[V:3] D2D4F2- | 
[V:4] G,,4D,4 | 
[V:1] z8 | 
[V:2] z8 | 
[V:3] F4E2A2- | 
[V:4] D,4C,2A,,2 | 
[V:1] z8 | 
[V:2] z8 | 
[V:3] A2G2A2GE | 
[V:4] B,,4A,,4 | 
[V:1] z8 | 
[V:2] z8 | 
[V:3] F2E2z2E2 | 
[V:4] D,2C,A,,B,,2A,,2 | 
[V:1] z8 | 
[V:2] c4c2c2 | 
[V:3] E2E2G4 | 
[V:4] z2E,2E,2E,2 | 
[V:1] z8 | 
[V:2] c4c4 | 
[V:3] A8- | 
[V:4] F,8 | 
[V:1] z8 | 
[V:2] d4z2d2 | 
[V:3] A8 | 
[V:4] D,4z2D,2 | 
[V:1] z8 | 
[V:2] e2f3ef2 | 
[V:3] z8 | 
[V:4] C,2D,3C,D,2 | 
[V:1] z8 | 
[V:2] e2cdefg2- | 
[V:3] z8 | 
[V:4] C,2A,,2C,3D, | 
[V:1] z8 | 
[V:2] gfede2d2- | 
[V:3] z8 | 
[V:4] E,F,G,3F,E,D, | 
[V:1] z8 | 
[V:2] d2^c2d4 | 
[V:3] z8 | 
[V:4] E,4D,4 | 
[V:1] z8 | 
[V:2] z4d4 | 
[V:3] B4B4 | 
[V:4] z4G,4 | 
[V:1] z8 | 
[V:2] d4d2d2 | 
[V:3] B4B4 | 
[V:4] G,4G,2G,2 | 
[V:1] z8 | 
[V:2] e8 | 
[V:3] c8 | 
[V:4] C,8- | 
[V:1] z8 | 
[V:2] e4e2e2 | 
[V:3] z2G2A2c2- | 
[V:4] C,8 | 
[V:1] z8 | 
[V:2] d3cA2e2- | 
[V:3] c2B2c4 | 
[V:4] z8 | 
[V:1] z8 | 
[V:2] e2d4c2 | 
[V:3] G4F2E2 | 
[V:4] z8 | 
[V:1] z8 | 
[V:2] B2e3fg2- | 
[V:3] G4G4 | 
[V:4] z8 | 
[V:1] z8 | 
[V:2] gfedcBf2- | 
[V:3] G2A2AGFE | 
[V:4] z8 | 
[V:1] z8 | 
[V:2] f2e4d2 | 
[V:3] D2E2F4 | 
[V:4] z8 | 
[V:1] z8 | 
[V:2] e8- | 
[V:3] E4z2A2 | 
[V:4] z4C,4 | 
[V:1] z8 | 
[V:2] e8 | 
[V:3] G2c3BAG | 
[V:4] C,4C,4- | 
[V:1] z8 | 
[V:2] z8 | 
[V:3] FEA4^G2 | 
[V:4] C,4B,,4 | 
[V:1] z8 | 
[V:2] e4e4 | 
[V:3] A8 | 
[V:4] A,,8 | 
[V:1] z8 | 
[V:2] f4e4 | 
[V:3] A4A4 | 
[V:4] z8 | 
[V:1] z8 | 
[V:2] d8 | 
[V:3] _B4_B4 | 
[V:4] G,,4G,,4 | 
[V:1] z8 | 
[V:2] d8 | 
[V:3] A4F4 | 
[V:4] D,4D,4 | 
[V:1] z8 | 
[V:2] d8 | 
[V:3] G2_B4AG | 
[V:4] G,,4G,4 | 
[V:1] z8 | 
[V:2] d8 | 
[V:3] A2G2F2D2 | 
[V:4] F,2G,2D,2F,2- | 
[V:1] z8 | 
[V:2] c8 | 
[V:3] A2A4G2 | 
[V:4] F,2E,D,E,4 | 
[V:1] z8 | 
[V:2] d8 | 
[V:3] A4A4 | 
[V:4] D,8 | 
[V:1] z8 | 
[V:2] e4e2f2- | 
[V:3] A8 | 
[V:4] z8 | 
[V:1] z8 | 
[V:2] f2e4d2 | 
[V:3] A3Bc2B2- | 
[V:4] z8 | 
[V:1] z8 | 
[V:2] B2c4B2 | 
[V:3] BAA4G2- | 
[V:4] z8 | 
[V:1] z8 | 
[V:2] A4z4 | 
[V:3] G^F^F2G2_B2- | 
[V:4] z8 | 
[V:1] z8 | 
[V:2] d4d2d2 | 
[V:3] B2A3FAB | 
[V:4] D,4D,2D,2 | 
[V:1] z8 | 
[V:2] c2f4e2 | 
[V:3] c2d4c2 | 
[V:4] A,8 | 
[V:1] z8 | 
[V:2] d2g4f2 | 
[V:3] G2d4c2 | 
[V:4] _B,4A,4 | 
[V:1] z8 | 
[V:2] g4e2f2- | 
[V:3] d4B2c2- | 
[V:4] _B,2G,4A,2- | 
[V:1] z8 | 
[V:2] fed4^c2 | 
[V:3] cBA4G2 | 
[V:4] A,G,F,2E,4 | 
[V:1] z8 ||  
[V:2] d8 ||  
[V:3] A8 ||  
[V:4] D,8 ||  
[V:1]  [K:C] [K:clef=treble][M:2/1]E8 | 
[V:2]  [K:C] [K:clef=treble-8][M:2/1]z4A4- | 
[V:3]  [K:C] [K:clef=treble-8][M:2/1]z8 | 
[V:4]  [K:C] [K:clef=bass][M:2/1]z8 | 
[V:1] E4E4- | 
[V:2] A4A4 | 
[V:3] z8 | 
[V:4] z8 | 
[V:1] E4F4 | 
[V:2] A8 | 
[V:3] z8 | 
[V:4] z8 | 
[V:1] G4E4- | 
[V:2] B4c4 | 
[V:3] z8 | 
[V:4] z8 | 
[V:1] E4E4- | 
[V:2] A8 | 
[V:3] z8 | 
[V:4] z8 | 
[V:1] E4F2E2- | 
[V:2] z4A4 | 
[V:3] z8 | 
[V:4] z8 | 
[V:1] E2C2D2C2- | 
[V:2] A4_B2A2- | 
[V:3] z8 | 
[V:4] z8 | 
[V:1] C2C2D2E2- | 
[V:2] A2F4G2 | 
[V:3] z8 | 
[V:4] z8 | 
[V:1] ECE2D2C2 | 
[V:2] A2G2_B2A2- | 
[V:3] z8 | 
[V:4] z8 | 
[V:1] A4B4 | 
[V:2] A2F2G4 | 
[V:3] z8 | 
[V:4] z8 | 
[V:1] c8 | 
[V:2] A3Bcde2 | 
[V:3] z8 | 
[V:4] z8 | 
[V:1] c8 | 
[V:2] f2e2f2e2- | 
[V:3] z8 | 
[V:4] z8 | 
[V:1] B4B4 | 
[V:2] e2dcd2e2 | 
[V:3] z8 | 
[V:4] z8 | 
[V:1] c3BA2GF | 
[V:2] A8 | 
[V:3] z8 | 
[V:4] z8 | 
[V:1] EFGAB2c2- | 
[V:2] z4e4- | 
[V:3] z8 | 
[V:4] z8 | 
[V:1] c2B2c2B2- | 
[V:2] e4e4 | 
[V:3] z8 | 
[V:4] z8 | 
[V:1] B2AGA2B2 | 
[V:2] d4d4 | 
[V:3] z8 | 
[V:4] z8 | 
[V:1] E8 | 
[V:2] e3dc2BA | 
[V:3] z8 | 
[V:4] z8 | 
[V:1] z4B4- | 
[V:2] GABcd2e2- | 
[V:3] z8 | 
[V:4] G,8 | 
[V:1] B4B4 | 
[V:2] e2d2e2d2- | 
[V:3] z8 | 
[V:4] G,4G,4 | 
[V:1] A4A4 | 
[V:2] d2cBc2d2 | 
[V:3] z8 | 
[V:4] F,4F,4 | 
[V:1] B3AG2FE | 
[V:2] G8 | 
[V:3] z8 | 
[V:4] G,4E,3F, | 
[V:1] DEFGA2_B2- | 
[V:2] z4d4- | 
[V:3] z8 | 
[V:4] G,4D,2G,2- | 
[V:1] B2A2_B2A2- | 
[V:2] d4d4 | 
[V:3] z8 | 
[V:4] G,2F,2G,2F,2- | 
[V:1] A2GFG2A2 | 
[V:2] c4c4 | 
[V:3] z8 | 
[V:4] F,2E,D,E,2F,2 | 
[V:1] D8 | 
[V:2] B8 | 
[V:3] z8 | 
[V:4] G,4G,4 | 
[V:1] z4G4 | 
[V:2] B8 | 
[V:3] z8 | 
[V:4] G,4G,4 | 
[V:1] G4G4 | 
[V:2] e8 | 
[V:3] z8 | 
[V:4] E,8 | 
[V:1] E8 | 
[V:2] c2A4A2- | 
[V:3] z8 | 
[V:4] A,8 | 
[V:1] A8 | 
[V:2] A2d2A2d2- | 
[V:3] z8 | 
[V:4] F,2D,4D,2- | 
[V:1] F2D4D2- | 
[V:2] dcA2B2A2- | 
[V:3] z8 | 
[V:4] D,E,F,2G,2D,2- | 
[V:1] DEF2G2D2 | 
[V:2] ABcde2f2- | 
[V:3] z8 | 
[V:4] D,4C,2D,2 | 
[V:1] G4F4 | 
[V:2] fee4d2 | 
[V:3] z8 | 
[V:4] E,2C,2D,4 | 
[V:1] E4z4 | 
[V:2] e8 | 
[V:3] z8 | 
[V:4] A,,8 | 
[V:1] G6G2 | 
[V:2] z8 | 
[V:3] z8 | 
[V:4] E,6E,2 | 
[V:1] A4c4 | 
[V:2] c6c2 | 
[V:3] z8 | 
[V:4] F,4A,4 | 
[V:1] B4A4 | 
[V:2] d4f4 | 
[V:3] z8 | 
[V:4] G,4F,3E, | 
[V:1] G3AB2A2- | 
[V:2] e4d4 | 
[V:3] z8 | 
[V:4] C,2G,4D,2 | 
[V:1] A2GFE4 | 
[V:2] c4c4 | 
[V:3] z8 | 
[V:4] F,3G,A,4- | 
[V:1] z4c4- | 
[V:2] ABcde2f2- | 
[V:3] z8 | 
[V:4] A,4A,4- | 
[V:1] c4B4- | 
[V:2] f2e4dc | 
[V:3] z8 | 
[V:4] A,4G,4- | 
[V:1] B4A4 | 
[V:2] d2e4d2 | 
[V:3] z8 | 
[V:4] G,2E,2F,4 | 
[V:1] G8 | 
[V:2] e8 | 
[V:3] z8 | 
[V:4] E,8 | 
[V:1] [M:3/1]G4G4E4 | 
[V:2] [M:3/1]z12 | 
[V:3] [M:3/1]z12 | 
[V:4] [M:3/1]E,4E,4C,4 | 
[V:1] G4A6G2 | 
[V:2] [M:3/1]c4c4A4 | 
[V:3] z12 | 
[V:4] E,4F,6E,2 | 
[V:1] G4B6A2 | 
[V:2] c4d6c2 | 
[V:3] z12 | 
[V:4] C,4G,6A,2 | 
[V:1] A4d6c2 | 
[V:2] c4f6e2 | 
[V:3] z12 | 
[V:4] A,4D,6A,2 | 
[V:1] c6A2B4 | 
[V:2] e4d8 | 
[V:3] z12 | 
[V:4] A,4F,4G,4 | 
[V:1] E4A6G2 | 
[V:2] z4c6B2 | 
[V:3] z12 | 
[V:4] C,4F,6G,2 | 
[V:1] G6E2F4 | 
[V:2] B4A8 | 
[V:3] z12 | 
[V:4] G,4D,8 | 
[V:1] _B,4F6E2 | 
[V:2] G4c6B2 | 
[V:3] z12 | 
[V:4] z4A,6G,2 | 
[V:1] E8D4 | 
[V:2] B8A4 | 
[V:3] z12 | 
[V:4] E,4F,8 | 
[V:1] E12- | 
[V:2] B4c8 | 
[V:3] z12 | 
[V:4] E,4C,8 | 
[V:1] E12 ||  
[V:2] B12 ||  
[V:3] z12 ||  
[V:4] E,12 ||  
[V:1]  [K:C] [K:clef=treble][M:2/1]z4E4- | 
[V:2]  [K:C] [K:clef=treble-8][M:2/1]G8 | 
[V:3]  [K:C] [K:clef=treble-8][M:2/1]B8- | 
[V:4]  [K:C] [K:clef=bass][M:2/1]E,8- | 
[V:1] E4E4 | 
[V:2] G4G4- | 
[V:3] B4c4 | 
[V:4] E,4C,4 | 
[V:1] E8 | 
[V:2] G4G4- | 
[V:3] c8 | 
[V:4] C,8 | 
[V:1] G8 | 
[V:2] G4G4 | 
[V:3] c4c4- | 
[V:4] C,4C,4- | 
[V:1] G4E4- | 
[V:2] G8 | 
[V:3] c4c4- | 
[V:4] C,4C,4- | 
[V:1] E4G4 | 
[V:2] G4G4- | 
[V:3] c4c4 | 
[V:4] C,2D,2E,4 | 
[V:1] A4c4- | 
[V:2] G2FEF4 | 
[V:3] c8 | 
[V:4] A,,8 | 
[V:1] c2B2B4- | 
[V:2] z4G4 | 
[V:3] d8 | 
[V:4] G,,8 | 
[V:1] B4G4- | 
[V:2] D4G4- | 
[V:3] B4B4 | 
[V:4] G,,4G,,4 | 
[V:1] G2E2E4- | 
[V:2] G4c4- | 
[V:3] c6BA | 
[V:4] C,8 | 
[V:1] E4G4 | 
[V:2] c4c4 | 
[V:3] G4G4 | 
[V:4] C,4C,4 | 
[V:1] G4E2G2- | 
[V:2] d2e4dc | 
[V:3] G4G4 | 
[V:4] G,,2C,4B,,A,, | 
[V:1] G2FED4 | 
[V:2] B2c4B2 | 
[V:3] G8 | 
[V:4] G,,8 | 
[V:1] z4G4- | 
[V:2] c8- | 
[V:3] G8 | 
[V:4] C,8 | 
[V:1] G4G4 | 
[V:2] c8 | 
[V:3] z4G4 | 
[V:4] z4C,4- | 
[V:1] A4c4- | 
[V:2] z4F4 | 
[V:3] c8 | 
[V:4] C,2B,,2A,,2G,,2 | 
[V:1] c4A4 | 
[V:2] F4F2F2 | 
[V:3] A4A4 | 
[V:4] F,,4F,,4 | 
[V:1] B8 | 
[V:2] D2d4cB | 
[V:3] G8 | 
[V:4] G,,8 | 
[V:1] G4G4 | 
[V:2] d4d4 | 
[V:3] G4G4 | 
[V:4] G,,4G,,4 | 
[V:1] F3GA2B2 | 
[V:2] d8 | 
[V:3] A4F4 | 
[V:4] D,4D,4 | 
[V:1] c3BAGA2- | 
[V:2] e4e4 | 
[V:3] G4E2F2 | 
[V:4] C,4C,4 | 
[V:1] A2G4^F2 | 
[V:2] B2c2d4 | 
[V:3] G4A4 | 
[V:4] E,4D,4 | 
[V:1] G8- | 
[V:2] B4z2G2- | 
[V:3] G4z2E2- | 
[V:4] G,,8- | 
[V:1] G8 | 
[V:2] GABcdGg2- | 
[V:3] EFGABcd2- | 
[V:4] G,,8- | 
[V:1] z8 | 
[V:2] g2fed4 | 
[V:3] d2c4B2 | 
[V:4] G,,8 | 
[V:1] G4G4 | 
[V:2] c4e4 | 
[V:3] c8 | 
[V:4] z4C,4 | 
[V:1] E4G4- | 
[V:2] c4d4 | 
[V:3] z4B4 | 
[V:4] C,4G,,4 | 
[V:1] G4G4 | 
[V:2] e4e4 | 
[V:3] c2c2B2B2 | 
[V:4] C,4E,4 | 
[V:1] A2c4B2- | 
[V:2] c2A2B3c | 
[V:3] A4G4 | 
[V:4] F,4E,4 | 
[V:1] B2A4G2- | 
[V:2] d4e4 | 
[V:3] F4G4 | 
[V:4] D,4C,4 | 
[V:1] G2F4E2- | 
[V:2] A2B2c4 | 
[V:3] D4E4 | 
[V:4] D,4A,,4 | 
[V:1] E2DCD4 | 
[V:2] A4A4- | 
[V:3] F4F4 | 
[V:4] D,4D,4 | 
[V:1] E4z2E2 | 
[V:2] A4z2e2 | 
[V:3] E8- | 
[V:4] A,,4z2A,,2 | 
[V:1] G4G4 | 
[V:2] e4e2e2 | 
[V:3] E2C2C2C2 | 
[V:4] E,4E,4 | 
[V:1] A4A4- | 
[V:2] A4d4 | 
[V:3] F4F4 | 
[V:4] D,4D,4 | 
[V:1] A4c4 | 
[V:2] c8 | 
[V:3] E4C4 | 
[V:4] A,,8 | 
[V:1] d3cdcBA | 
[V:2] B4B4 | 
[V:3] G4d3c | 
[V:4] G,,4G,,2G,2- | 
[V:1] B2A4^G2 | 
[V:2] d4e4 | 
[V:3] dcBAB4 | 
[V:4] G,A,F,2E,4 | 
[V:1] A8 | 
[V:2] c2d3cA2 | 
[V:3] A8 | 
[V:4] A,,2D,4D,2 | 
[V:1] z8 | 
[V:2] _BAGFG4- | 
[V:3] z2d4d2 | 
[V:4] _B,,4B,,4 | 
[V:1] z8 | 
[V:2] G2FEF4- | 
[V:3] c4c4 | 
[V:4] A,,4A,,4 | 
[V:1] z4d4- | 
[V:2] F2G3ABc | 
[V:3] d3cdcBA | 
[V:4] G,,3A,,B,,C,D,2- | 
[V:1] d4d4 | 
[V:2] def4ed | 
[V:3] B2A4G2 | 
[V:4] D,C,B,,A,,B,,4 | 
[V:1] c2c2c2c2 | 
[V:2] f2e4dc | 
[V:3] A4G4- | 
[V:4] A,,4C,4 | 
[V:1] B2GABcd2- | 
[V:2] d2Bcded2 | 
[V:3] G4D4 | 
[V:4] G,,8- | 
[V:1] d2c4B2 | 
[V:2] B2c2d4 | 
[V:3] G8 | 
[V:4] G,,8 | 
[V:1] c4G4 | 
[V:2] c4c4 | 
[V:3] z4G4 | 
[V:4] z4C,4 | 
[V:1] A4G4 | 
[V:2] c4c4 | 
[V:3] F4E4 | 
[V:4] F,,4C,4 | 
[V:1] F4E4 | 
[V:2] F4c4 | 
[V:3] A4A4 | 
[V:4] D,4A,,4 | 
[V:1] F6D2 | 
[V:2] d6B2 | 
[V:3] F6G2 | 
[V:4] D,6G,,2 | 
[V:1] D8- | 
[V:2] B4z2g2- | 
[V:3] G8 | 
[V:4] G,,8 | 
[V:1] D8 | 
[V:2] g2fed2G2 | 
[V:3] z2B4AG | 
[V:4] z2G,4F,E, | 
[V:1] z2G4FE | 
[V:2] d6B2 | 
[V:3] F2G2D4- | 
[V:4] D,2G,,2G,,4- | 
[V:1] D2G,2E4- | 
[V:2] B4c4 | 
[V:3] D2E2E4 | 
[V:4] G,,4C,4 | 
[V:1] E2DCD4 | 
[V:2] A6B2 | 
[V:3] F6D2 | 
[V:4] D,6G,,2 | 
[V:1] G8- | 
[V:2] B8 | 
[V:3] D6E2 | 
[V:4] G,,8 | 
[V:1] G4E4 | 
[V:2] z8 | 
[V:3] E8 | 
[V:4] z4G,4 | 
[V:1] E8- | 
[V:2] B8- | 
[V:3] E8- | 
[V:4] G,6E,2 | 
[V:1] E8 |]  
[V:2] B8 |]  
[V:3] E8 |]  
[V:4] E,8 |]  



